flaticon/gastronomy/bowl-1.svg

<svg xmlns="http://www.w3.org/2000/svg" width="32" height="32" viewBox="0 0 24 24">
    <path d="M 24 7.585938 C 24 5.726562 19.378906 4.640625 14.226562 4.398438 C 13.492188 4.363281 12.746094 4.347656 12 4.347656 C 11.253906 4.347656 10.507812 4.363281 9.773438 4.398438 C 4.621094 4.640625 0 5.726562 0 7.585938 L 0 7.652344 C 0 14.269531 5.382812 19.652344 12 19.652344 C 18.617188 19.652344 24 14.269531 24 7.652344 Z M 23.09375 7.585938 C 23.09375 8.539062 18.773438 9.921875 12 9.921875 C 5.226562 9.921875 0.90625 8.539062 0.90625 7.585938 C 0.90625 6.636719 5.230469 5.253906 12 5.253906 C 18.773438 5.253906 23.09375 6.636719 23.09375 7.585938 Z M 12 18.746094 C 6.324219 18.746094 1.632812 14.460938 0.984375 8.957031 C 2.933594 10.1875 7.488281 10.828125 12 10.828125 C 16.511719 10.828125 21.066406 10.1875 23.015625 8.957031 C 22.367188 14.460938 17.675781 18.746094 12 18.746094 Z M 12 18.746094"/>
</svg>

<svg xmlns="http://www.w3.org/2000/svg" width="32" height="32" viewBox="0 0 24 24">
    <path d="M24 7.586c0-1.86-4.621-2.945-9.773-3.188-.735-.035-1.48-.05-2.227-.05-.746 0-1.492.015-2.227.05C4.621 4.641 0 5.727 0 7.586v.066c0 6.618 5.383 12 12 12s12-5.382 12-12zm-.906 0c0 .953-4.32 2.336-11.094 2.336C5.227 9.922.906 8.539.906 7.586c0-.95 4.324-2.332 11.094-2.332 6.773 0 11.094 1.383 11.094 2.332zM12 18.746c-5.676 0-10.367-4.285-11.016-9.789 1.95 1.23 6.504 1.871 11.016 1.871 4.512 0 9.066-.64 11.016-1.871-.649 5.504-5.34 9.79-11.016 9.79zm0 0"/>
</svg>
